X:1
T:PADDY ON THE RAILROAD -- REEL
N:AKA The Merry Blacksmith
B:Ryan's Mammoth Collection of Fiddle Tunes
R:reel
Z:Contributed 20000418133948 by John Chambers jchambers:casc.com
Z:Contributed by Ray Davies,  ray:davies99.freeserve.co.uk
M:2/4
L:1/16
K:D
(fe) |\
.d2(dA) BAFA | .d2(dA) BAFA | ABde .f2(ed) | Beed egfe |
.d2(dA) BAFA | ABdA BAFA | ABde fdec | dBAF D2 :|
|: (fg) |\
abag .f2(fe) | .d2(dA) BAFA | ABde .f2(ed) | .B2(ed) efge |
abag .f2(fe) | .d2(dA) BAFA | ABde fdec | dBAF D2 :|
